img/buyitback/Illustration.svg

<svg width="602" height="672" viewBox="0 0 602 672" fill="none" xmlns="http://www.w3.org/2000/svg">
<path fill-rule="evenodd" clip-rule="evenodd" d="M541.614 122.543L361.076 16.2668C324.26 -5.42227 278.241 -5.42227 240.717 16.2668L60.1793 122.543C22.6557 144.955 0 185.442 0 229.543V442.819C0 486.197 22.6557 527.406 60.1793 549.818L240.717 656.095C257.709 666.216 278.949 672 300.897 672C322.844 672 344.084 666.216 361.076 656.095L541.614 549.818C578.429 528.129 601.793 486.92 601.793 442.819V229.543C601.793 185.442 579.137 144.955 541.614 122.543ZM300.897 61.0909C310.808 61.0909 322.136 63.9828 331.34 69.0436L511.878 175.32C530.286 186.165 542.322 207.131 542.322 229.543V442.819C542.322 465.231 530.286 486.197 511.878 496.318L331.34 603.318C312.224 614.885 288.861 614.885 270.453 603.318L89.915 496.318C71.5072 485.474 59.4713 464.508 59.4713 442.096V229.543C59.4713 207.131 71.5072 186.165 89.915 175.32L270.453 69.0436C279.657 63.9828 290.985 61.0909 300.897 61.0909ZM269.039 330.836C269.039 325.052 271.163 319.991 275.411 315.653C278.243 312.761 281.783 309.87 286.739 306.978L377.362 262.877C391.522 255.647 408.513 262.154 414.885 276.613C417.717 283.843 418.425 291.795 415.593 299.025C412.761 306.255 407.805 312.039 400.726 315.653L325.678 351.802V493.504C325.678 509.409 312.935 522.423 297.359 522.423C281.783 522.423 269.039 509.409 269.039 493.504V334.451V330.836Z" fill="#FFE9F1"/>
</svg>

<svg width="602" height="672" fill="none" xmlns="http://www.w3.org/2000/svg"><path fill-rule="evenodd" clip-rule="evenodd" d="M541.614 122.543 361.076 16.267c-36.816-21.69-82.835-21.69-120.359 0L60.179 122.543C22.656 144.955 0 185.442 0 229.543v213.276c0 43.378 22.656 84.587 60.18 106.999l180.537 106.277C257.709 666.216 278.949 672 300.897 672c21.947 0 43.187-5.784 60.179-15.905l180.538-106.277c36.815-21.689 60.179-62.898 60.179-106.999V229.543c0-44.101-22.656-84.588-60.179-107ZM300.897 61.091c9.911 0 21.239 2.892 30.443 7.953L511.878 175.32c18.408 10.845 30.444 31.811 30.444 54.223v213.276c0 22.412-12.036 43.378-30.444 53.499l-180.538 107c-19.116 11.567-42.479 11.567-60.887 0l-180.538-107c-18.408-10.844-30.444-31.81-30.444-54.222V229.543c0-22.412 12.036-43.378 30.444-54.223L270.453 69.044c9.204-5.061 20.532-7.953 30.444-7.953Zm-31.858 269.745c0-5.784 2.124-10.845 6.372-15.183 2.832-2.892 6.372-5.783 11.328-8.675l90.623-44.101c14.16-7.23 31.151-.723 37.523 13.736 2.832 7.23 3.54 15.182.708 22.412-2.832 7.23-7.788 13.014-14.867 16.628l-75.048 36.149v141.702c0 15.905-12.743 28.919-28.319 28.919-15.576 0-28.32-13.014-28.32-28.919V330.836Z" fill="#FFE9F1"/></svg>
